src/assets/icons/svg/password.svg

<?xml version="1.0" standalone="no"?><!DOCTYPE svg PUBLIC "-//W3C//DTD SVG 1.1//EN" "http://www.w3.org/Graphics/SVG/1.1/DTD/svg11.dtd"><svg t="1575802846045" class="icon" viewBox="0 0 1024 1024" version="1.1" xmlns="http://www.w3.org/2000/svg" p-id="2750" xmlns:xlink="http://www.w3.org/1999/xlink" width="200" height="200"><defs><style type="text/css"></style></defs><path d="M868.593046 403.832442c-30.081109-28.844955-70.037123-44.753273-112.624057-44.753273L265.949606 359.079168c-42.554188 0-82.510202 15.908318-112.469538 44.690852-30.236652 28.782533-46.857191 67.222007-46.857191 108.198258l0 294.079782c0 40.977273 16.619516 79.414701 46.702672 108.136859 29.959336 28.844955 70.069869 44.814672 112.624057 44.814672l490.019383 0c42.585911 0 82.696444-15.969717 112.624057-44.814672 30.082132-28.844955 46.579875-67.222007 46.579875-108.136859L915.172921 511.968278C915.171897 471.053426 898.675178 432.677397 868.593046 403.832442zM841.821309 806.049083c0 22.098297-8.882298 42.772152-25.099654 58.306964-16.154935 15.661701-37.81935 24.203238-60.752666 24.203238L265.949606 888.559285c-22.934339 0-44.567032-8.54256-60.877509-24.264637-16.186657-15.474436-25.067932-36.148291-25.067932-58.246589L180.004165 511.968278c0-22.035876 8.881274-42.772152 25.192775-58.307987 16.186657-15.536858 37.81935-24.139793 60.753689-24.139793l490.019383 0c22.933315 0 44.597731 8.602935 60.752666 24.139793 16.21838 15.535835 25.099654 36.272112 25.099654 58.307987L841.822332 806.049083zM510.974136 135.440715c114.914216 0 208.318536 89.75214 208.318536 200.055338l73.350588 0c0-149.113109-126.366036-270.496667-281.669124-270.496667-155.333788 0-281.699824 121.383558-281.699824 270.496667l73.350588 0C302.623877 225.193879 396.059919 135.440715 510.974136 135.440715zM474.299865 747.244792l73.350588 0L547.650453 629.576859l-73.350588 0L474.299865 747.244792z" p-id="2751"></path></svg>

<svg xmlns="http://www.w3.org/2000/svg" width="200" height="200" class="icon" viewBox="0 0 1024 1024"><path d="M868.593 403.832c-30.081-28.845-70.037-44.753-112.624-44.753h-490.02c-42.554 0-82.51 15.908-112.469 44.691-30.237 28.783-46.857 67.222-46.857 108.198v294.08c0 40.977 16.62 79.415 46.703 108.137C183.285 943.03 223.396 959 265.95 959h490.019c42.586 0 82.696-15.97 112.624-44.815 30.082-28.845 46.58-67.222 46.58-108.137v-294.08c-.001-40.915-16.498-79.29-46.58-108.136zM841.821 806.05c0 22.098-8.882 42.772-25.1 58.307-16.154 15.662-37.819 24.203-60.752 24.203h-490.02c-22.934 0-44.566-8.542-60.877-24.264-16.187-15.475-25.068-36.149-25.068-58.247v-294.08c0-22.036 8.881-42.772 25.193-58.308 16.187-15.537 37.82-24.14 60.754-24.14H755.97c22.933 0 44.598 8.603 60.753 24.14 16.218 15.536 25.1 36.272 25.1 58.308V806.05zM510.974 135.441c114.914 0 208.319 89.752 208.319 200.055h73.35C792.643 186.383 666.277 65 510.974 65c-155.334 0-281.7 121.384-281.7 270.497h73.35c0-110.302 93.436-200.055 208.35-200.055zM474.3 747.245h73.35V629.577H474.3v117.668z"/></svg>
